X:1
T:Come Day, Go Day
M:8/8
L:1/8
K:C
 C| CG F E2 D C2| DD C A,- A,4| z B,B, B,2 C D2| E4- E z CC| CG F E2 D C2|\
 D D2 CA, A,A, A,| B,B, B, B,2 C D2| C3 zC-B,-_B,-A,| E3 F3- E2| z E D3- D2 z|\
 z DD D E2 D2| D C4C-B,-_B,| z E2 EE F2 E| z D2 C A,3 z| D D2 E2 D3|\
 D C3 z2|
